!!!COM: Felix Mendelssohn
!!!CNT: Deutsch
!!!TXO: Deutsch
!!!OTL: Wartend
!!!LYR: Unknown
!!!OPS: Op. 9
!!!ONM: No. 2
!!!ENC: Daniel Alt & Leigh VanHandel
!!!YOR: Sa2mmtliche Lieder fu2r eine Singstimme 
!!!YOR: Neu revidirt von Dr. L. Benda, Ausgabe fu2r mittlere Stimme
!!!YOR: Braunschweig. Henry Litolff's Verlag. Boston and New York: Arthur P. Schmidt.
!!!ODT: 1829/
**kern
*staff1
=1-
*clefG2
*k[]
*met(C)
*M4/4
1r
=2
1r
=3
2r
4r
{8.c
16d
=4
4e
8.e
16e
4a
8.e
16a
=5
4cc
4b
4..a
16e
=6
4e
8.e
16f
4g
8.cc
16e
=7
4.g
8f
4e}
4r
=8
{4e
8.e
16e
4e
[4dd
=9
4dd]
4cc
2b}
=10
{4cc
8.b
16a
[2ee
=11
1ee_
=12
1ee_
=13
2ee]}
2r
=14
{2a
bq
aq
4a-
4an
=15
4b
2.ee}
=16
2r
4r
{8.c
16d
=17
4e
4e
4a
8.e
16a
=18
4cc
4b
4a}
8r
{8e
=19
4e
8.e
16f
4g
gq
8.cc
16e
=20
4g
8.g
16f
4e}
4r
=21
4r
{8.e
16e
2dd
=22
4.cc
8cc
2b}
=23
{4.cc
8b
4a
4r
=24
4cc
8.b
16a
[2ee
=25
1ee_
=26
1ee_
=27
2ee]}
2r
=28
{4f
8.e
16d
4e
[4a
=29
1a]}
==
*-
